public/images/icons/40x40/whatsapp_40_purple.svg

<svg height="40" viewBox="0 0 40 40" width="40" xmlns="http://www.w3.org/2000/svg" xmlns:xlink="http://www.w3.org/1999/xlink"><mask id="a" fill="#fff"><path d="m0 0h25.991v25.992h-25.991z" fill="#fff" fill-rule="evenodd"/></mask><path d="m18.9501527 15.5759886c-.3233556-.1610024-1.9130787-.9395202-2.2095035-1.0469786-.2964249-.1073967-.5119953-.1610642-.7275657.1610024-.2155704.32219-.8352267 1.0471021-1.0239284 1.2619572-.1885775.2146698-.3772172.241658-.7005107.0805321-.3234177-.1611259-1.3653413-.5009169-2.6004344-1.5974252-.9613174-.8533064-1.6102625-1.9071402-1.79890212-2.2293919-.18857757-.3221283-.02004296-.4962851.14185202-.6567934.1454511-.1442043.3233556-.3759192.4850024-.5637862.1617088-.1879288.2155704-.3222518.3233556-.5368599.1077852-.2148551.0539236-.4027838-.0269308-.56384795-.0808544-.16106413-.7275656-1.7452114-.9969976-2.38965321-.2624821-.62739667-.52905967-.54241805-.72756563-.5524228-.18839141-.00932542-.40421003-.01130166-.61971838-.01130166-.21557041 0-.56591886.08053206-.86228162.40266033-.29642482.32225178-1.13177566 1.10083135-1.13177566 2.68485509 0 1.5840855 1.15870644 3.1143183 1.32041527 3.3291117.16164678.2148551 2.28011932 3.4654109 5.52391412 4.8594679.7714988.3315772 1.3738424.5296342 1.8433938.6778527.7746634.2450547 1.4795799.2104703 2.0366873.1275915.6212697-.0923896 1.9131408-.7785178 2.1826349-1.5302328.2694319-.7518385.2694319-1.3961568.1885775-1.5303563-.0807923-.1342613-.2963627-.2148551-.6197184-.375981m-5.9000763 8.017696h-.0043437c-1.9300811-.0007411-3.823179-.5167886-5.47470645-1.4921901l-.39273031-.2320237-4.07107876 1.0628503 1.08660144-3.9503943-.25571838-.4050071c-1.07673508-1.7044513-1.64538425-3.6743373-1.64457842-5.6971496.00235885-5.90243233 4.82768582-10.70446559 10.76083618-10.70446559 2.873031.00098813 5.5737422 1.11602376 7.6045967 3.13951544 2.0307923 2.02342993 3.1485441 4.71316385 3.14749 7.57353445-.0024208 5.9029264-4.8277478 10.7053302-10.7563683 10.7053302m9.1544821-19.8164466c-2.4433174-2.43455106-5.6926349-3.77586698-9.1546062-3.77722565-7.13312175 0-12.9386301 5.77749644-12.94148452 12.87889315-.00093079 2.2700902.59495943 4.4858337 1.72747971 6.4391686l-1.83594749 6.6742185 6.86040095-1.7910974c1.89024344 1.0261046 4.01845825 1.5669787 6.18440095 1.5677198h.0052745.000062c7.1323771 0 12.9384439-5.778114 12.9412993-12.879696.0013022-3.44144893-1.3435618-6.67749168-3.7868792-9.111981" fill="#1e1169" fill-rule="evenodd" mask="url(#a)" transform="translate(7 7)"/></svg>

<svg xmlns="http://www.w3.org/2000/svg" xmlns:xlink="http://www.w3.org/1999/xlink" width="40" height="40" viewBox="0 0 40 40">
  <defs>
    <polygon id="whatsapp_40_purple-a" points="0 0 25.991 0 25.991 25.992 0 25.992"/>
  </defs>
  <g fill="none" fill-rule="evenodd" transform="translate(7 7)">
    <mask id="whatsapp_40_purple-b" fill="#fff">
      <use xlink:href="#whatsapp_40_purple-a"/>
    </mask>
    <path fill="#1E1169" d="M18.9501527,15.5759886 C18.6267971,15.4149862 17.037074,14.6364684 16.7406492,14.52901 C16.4442243,14.4216133 16.2286539,14.3679458 16.0130835,14.6900124 C15.7975131,15.0122024 15.1778568,15.7371145 14.9891551,15.9519696 C14.8005776,16.1666394 14.6119379,16.1936276 14.2886444,16.0325017 C13.9652267,15.8713758 12.9233031,15.5315848 11.68821,14.4350765 C10.7268926,13.5817701 10.0779475,12.5279363 9.88930788,12.2056846 C9.70073031,11.8835563 9.86926492,11.7093995 10.0311599,11.5488912 C10.176611,11.4046869 10.3545155,11.172972 10.5161623,10.985105 C10.6778711,10.7971762 10.7317327,10.6628532 10.8395179,10.4482451 C10.9473031,10.23339 10.8934415,10.0454613 10.8125871,9.88439715 C10.7317327,9.72333302 10.0850215,8.13918575 9.8155895,7.49474394 C9.5531074,6.86734727 9.28652983,6.95232589 9.08802387,6.94232114 C8.89963246,6.93299572 8.68381384,6.93101948 8.46830549,6.93101948 C8.25273508,6.93101948 7.90238663,7.01155154 7.60602387,7.33367981 C7.30959905,7.65593159 6.47424821,8.43451116 6.47424821,10.0185349 C6.47424821,11.6026204 7.63295465,13.1328532 7.79466348,13.3476466 C7.95631026,13.5625017 10.0747828,16.8130575 13.3185776,18.2071145 C14.0900764,18.5386917 14.69242,18.7367487 15.1619714,18.8849672 C15.9366348,19.1300219 16.6415513,19.0954375 17.1986587,19.0125587 C17.8199284,18.9201691 19.1117995,18.2340409 19.3812936,17.4823259 C19.6507255,16.7304874 19.6507255,16.0861691 19.5698711,15.9519696 C19.4890788,15.8177083 19.2735084,15.7371145 18.9501527,15.5759886 M13.0500764,23.5936846 L13.0457327,23.5936846 C11.1156516,23.5929435 9.2225537,23.076896 7.57102625,22.1014945 L7.17829594,21.8694708 L3.10721718,22.9323211 L4.19381862,18.9819268 L3.93810024,18.5769197 C2.86136516,16.8724684 2.29271599,14.9025824 2.29352182,12.8797701 C2.29588067,6.97733777 7.12120764,2.17530451 13.054358,2.17530451 C15.927389,2.17629264 18.6281002,3.29132827 20.6589547,5.31481995 C22.689747,7.33824988 23.8074988,10.0279838 23.8064447,12.8883544 C23.8040239,18.7912808 18.9786969,23.5936846 13.0500764,23.5936846 M22.2045585,3.777238 C19.7612411,1.34268694 16.5119236,0.00137102138 13.0499523,1.23515439e-05 C5.91683055,1.23515439e-05 0.111322196,5.77750879 0.10846778,12.8789055 C0.107536993,15.1489957 0.703427208,17.3647392 1.83594749,19.3180741 L0,25.9922926 L6.86040095,24.2011952 C8.75064439,25.2272998 10.8788592,25.7681739 13.0448019,25.768915 L13.0500764,25.768915 L13.0501384,25.768915 C20.1825155,25.768915 25.9885823,19.990801 25.9914377,12.889219 C25.9927399,9.44777007 24.6478759,6.21172732 22.2045585,3.777238" mask="url(#whatsapp_40_purple-b)"/>
  </g>
</svg>
